assets/icons/login.svg

<svg width="24" height="25" viewBox="0 0 24 25" fill="none" xmlns="http://www.w3.org/2000/svg">
<path d="M15.75 6.5C15.75 7.49456 15.3549 8.44839 14.6516 9.15165C13.9484 9.85491 12.9945 10.25 12 10.25C11.0054 10.25 10.0516 9.85491 9.34833 9.15165C8.64506 8.44839 8.24998 7.49456 8.24998 6.5C8.24998 5.50544 8.64506 4.55161 9.34833 3.84835C10.0516 3.14509 11.0054 2.75 12 2.75C12.9945 2.75 13.9484 3.14509 14.6516 3.84835C15.3549 4.55161 15.75 5.50544 15.75 6.5ZM4.50098 20.618C4.53311 18.6504 5.33731 16.7742 6.74015 15.394C8.14299 14.0139 10.0321 13.2405 12 13.2405C13.9679 13.2405 15.857 14.0139 17.2598 15.394C18.6626 16.7742 19.4668 18.6504 19.499 20.618C17.1464 21.6968 14.5881 22.2535 12 22.25C9.32398 22.25 6.78398 21.666 4.50098 20.618Z" stroke="black" stroke-width="1.5" stroke-linecap="round" stroke-linejoin="round"/>
</svg>

<?xml version="1.0" encoding="UTF-8"?>
<svg id="Layer_1" data-name="Layer 1" xmlns="http://www.w3.org/2000/svg" viewBox="0 0 24 25">
  <path d="M15.75,6.5c0,.99-.4,1.95-1.1,2.65-.7.7-1.66,1.1-2.65,1.1s-1.95-.4-2.65-1.1c-.7-.7-1.1-1.66-1.1-2.65s.4-1.95,1.1-2.65c.7-.7,1.66-1.1,2.65-1.1s1.95.4,2.65,1.1c.7.7,1.1,1.66,1.1,2.65ZM4.5,20.62c.03-1.97.84-3.84,2.24-5.22,1.4-1.38,3.29-2.15,5.26-2.15s3.86.77,5.26,2.15c1.4,1.38,2.21,3.26,2.24,5.22-2.35,1.08-4.91,1.64-7.5,1.63-2.68,0-5.22-.58-7.5-1.63Z" style="fill: none; stroke: #000; stroke-linecap: round; stroke-linejoin: round; stroke-width: 1.5px;"/>
</svg>
